X:453
%%topmargin 3cm
T:Mr. Martins Compliments to Dr. Keith MacDonald
C:
O:Scotland
B:Keith Norman MacDonald : "The Skye collection of the best reels & strathspeys extant" : 1887
Z:Ralph Palmer
R:Strathspey
M:C
L:1/8
K:F
A,<C FC DD | G,<C GC E<C C>G | F>c A>c c>d B>d | d>e c>e f>c A<F |
A,<C FC DD | G,<C GC EC CG | F>c A>c F>d B>d | c>f e/f/g/e/ f2 fa |
f<c a>f c>f A>c | B<G g>b e>g c>g | f<c a>f c>f A>c | B>g e>g c>g f>a |
f<c a>f c>f A>c | B<G g>b e>g c>g | (3Acf (3Bdf (3egb (3efa | (3bge (3afc f2 fa |]
W:
W:A good dancing tune.
